X: 1
T: Come Dance and Sing
C: R-14
C: New England
M: C|
Z: Transcribed to abc by Mary Lou Knack
R: reel
K: D
(3ABc| "D"d2cd "A"e2de| "D"f2d2 dedc| "G"B2e2 "E7"efed| "A"c2A2 A2 (3ABc|
       "D"d2cd "A"e2de| "D"f2d2 dedc| "G"B2e2 "A"dcBc| "D"d2D2 D2 :|
|:\
AG| "D"F2A2 ABAG| F2A2 A3G| F2A2 d2f2| "E7" edcB "A"A2 AG|
    "D"F2A2 ABAG| F2A2 A2Bc| d2d2 "E7"fefg| "A"a2A2 A2 :|
%%text 9/1/98
